!!!OTL: 175b. Der Tannenbaum.
!!!ARE: Europa, Mitteleuropa, Deutschland, Odenwald, Neunkirchen
!!!SCT: E0175
!!!TXL: @@DE
!!!YEM: Copyright 1995, estate of Helmut Schaffrath.
**kern	**text
*ICvox	*
*M2/4	*
*k[b-]	*
*F:	*
!LO:TX:a:t=Sehr mäßig.	!
!LO:TX:a:t=Aus dem Odenwald (Neunkirchen).	!
{8c	O
=1	=1
8f	Tan-
8f	-nen-
8a	-baum,
16ccL	o
16b-J	.
=2	=2
8a	Tan-
8a	-nen-
8g}	-baum,
{8g	du
=3	=3
8a	biſt
8a	ein
16b-L	ed-
16ccJ	.
8dd	-ler
=4	=4
4cc	Ʒweig!
8r}	.
{8cc	Du
=5	=5
8dd	grü
8ee	neſt
8ff	uns
8cc	den
=6	=6
8ffL	Win-
8ddJ	.
8cc}	-ter,
{16ccL	die
16b-J	.
=7	=7
8a	lie-
8a	-be
8g	Som-
16gL	-mer-
16eJ	.
=8	=8
4f	-ʒeit.
8r}	.
{8cc	Du
=9	=9
8dd	grü
8ee	neſt
8ff	uns
8cc	den
=10	=10
8ffL	Win-
8ddJ	.
8cc}	-ter,
{16ccL	die
16b-J	.
=11	=11
8a	lie-
8a	-be
8g	Som-
16gL	-mer-
16eJ	.
=12	=12
4f	-ʒeit.
8r}	.
==	==
!!!AGN: erzaehlendes Volks - Lied, Sage, Pflanzen - Maerchen
!!!ONB: ESAC (Essen Associative Code) Database: ERK1
!!!AMT: simple duple
!!!AIN: vox
!!!EED: Helmut Schaffrath
!!!EEV: 1.0
!!!GTL: Thiersage und Pflanzenmaerchen
!!!URL-scan: https://rosdok.uni-rostock.de/mcrviewer/recordIdentifier/rosdok_ppn745146120/iview2/phys_0609.iview2?x=-128.7727644188933&y=199.48767855856568&scale=0.5870222003877484&rotation=0&layout=singlePageLayout
!!!ENC: Anna Maria Matuszewska
!!!EEV: 2024/04/12
*-	*-
